X:1
T:Winter Park, 87.87 D
T:Winter Park, 87.87 D
T:Ira Allan Sankey, 1903
T:Public Domain Courtesy of the Cyber Hymnal™
C:Ira Allan Sankey, 1903
Z:Public Domain
Z:Courtesy of the Cyber Hymnal™
%%score ( 1 2 ) 3
L:1/8
Q:1/4=125
M:6/4
K:Eb
V:1 treble 
V:2 treble 
V:3 bass 
V:1
 [EG]3 [EF] [EG]2 [EB]2 [EA]2 [EG]2 | [CG]6 [CF]6 | [DA]3 [DG] [DF]2 [DF]2 [D=E]2 [DF]2 | %3
 [EG]6- [EG]4 z2 | [GB]3 [_Gc] [Fd]2 [Af]2 [=Ge]2 [Fd]2 | [Fd]6 [Ec]6 | %6
 [Dc]2 [EB]2 [E=A]2 [D_A]3 [DG] [DF]2 | E6- E4 z2 | [B,D]2 [CE]2 [DF]2 [DA]3 [DG] [DF]2 | %9
 E6 [EG]6 | [DF]2 [DG]2 [FB]2 [E=A]3 [EB] [Ec]2 | [DB]6- [DFB]4 z2 | %12
 [Ee]2 [_Gd]2 [Gc]2 [FB]3 [EA] [E=G]2 | [Ec]6 [DF]6 | [EB]2 [EF]2 [EA]2 [EG]2 [CG]2 [DF]2 | %15
 E6- E4 z2 |] %16
V:2
 x12 | x12 | x12 | x12 | x12 | x12 | x12 | E6- E4 x2 | x12 | E6 x6 | x12 | x12 | x12 | x12 | x12 | %15
 E6- E4 x2 |] %16
V:3
 [E,B,]3 [E,=A,] [E,B,]2 [E,D]2 [E,C]2 [E,B,]2 | [A,,B,]6 [A,,A,]6 | %2
 [B,,C]3 [B,,B,] [B,,A,]2 [B,,A,]2 [B,,G,]2 [B,,A,]2 | [E,B,]6- [E,B,]4 z2 | %4
 [E,B,]3 [E,=A,] [E,_A,]2 [E,C]2 [E,B,]2 [G,=B,]2 | [A,=B,]6 [A,C]6 | %6
 [B,,A,]2 [B,,G,]2 [B,,_G,]2 [B,,F,]3 [B,,B,] [B,,A,]2 | [E,G,]6- [E,G,]4 z2 | %8
 [B,,F,]2 [B,,G,]2 [B,,A,]2 [B,,C]3 [B,,B,] [B,,A,]2 | [E,G,]6 [E,B,]6 | %10
 [F,B,]2 [F,B,]2 [F,D]2 [F,C]3 [F,G,] [F,=A,]2 | [B,,-B,]6 [B,,A,]4 z2 | %12
 [E,G,]2 [E,=A,]2 [E,A,]2 [D,B,]3 [C,C] [B,,_D]2 | [=A,,C]6 [_A,,B,]6 | %14
 [G,,B,]2 [A,,_C]2 [F,,C]2 [B,,B,]2 [B,,=A,]2 [B,,_A,]2 | [E,G,]6- [E,G,]4 z2 |] %16

